X: 20
T: Maid Behind The Bar, The
Z: jasonthe28
S: https://thesession.org/tunes/64#setting54168
R: reel
M: 4/4
L: 1/8
K: Dmaj
|:"D" FAAB AFED|FAAB ABde|"Em" fBBA Bcde|"A7" f2gf edBA|
"D" FAAB AFED|FAAB ABde|"Em" fBBA BcdB|"A7" AFEF "D" D4:|
|:"D" faag fdde|fdad fd df|"Em" efga beef|"A7" gebe gfeg |
"Bm" fgaf bfaf|"F#m" defd e2 de|"G" fBBA BcdB|"A7" AFEF "D" D4:|

%-------------------- TUNE SEPARATOR --------------------%

